packages/icons/svg/Outline/Sync.svg

<svg fill="none" height="24" viewBox="0 0 24 24" width="24" xmlns="http://www.w3.org/2000/svg"><path clip-rule="evenodd" d="m21.6829 10.326c-.0072.0159-.0145.0318-.0213.048-.0068.0168-.0122.0342-.0176.0517-.0088.0283-.0175.0565-.0324.0813-.0295.049-.0682.0902-.107.1315-.011.0117-.0221.0235-.033.0355-.0121.0125-.0228.0263-.0335.04-.0149.0191-.0298.0383-.0485.054-.056.0457-.1207.0775-.1852.1092-.0046.0023-.0092.0045-.0138.0068-.0136.0066-.0266.0149-.0395.0233-.0185.0118-.0369.0237-.0575.0307-.108.04-.223.062-.342.062-.054 0-.11-.004-.165-.014l-4.25-.705c-.545-.09-.913-.605-.823-1.15.09-.544.604-.917 1.15-.822l1.644.272c-1.245-2.186-3.622-3.581-6.238-3.581-2.95898 0-5.56598 1.718-6.64298 4.375-.157.39-.532.625-.927.625-.125 0-.252-.023-.375-.073-.512-.207-.759-.79-.551-1.302 1.384-3.417 4.719-5.625 8.49598-5.625 3.412 0 6.513 1.87 8.078 4.788l.369-1.973c.102-.542.626-.901 1.167-.797.543.101.901.624.799 1.167l-.749 4c-.0096.051-.0301.096-.0507.141zm-3.1094 4.299c.207-.513.791-.759 1.302-.552.512.207.759.79.551 1.302-1.384 3.417-4.719 5.625-8.496 5.625-3.41198 0-6.51298-1.87-8.07798-4.788l-.37 1.972c-.089.481-.509.816-.982.816-.061 0-.123-.006-.185-.018-.543-.101-.9-.624-.798-1.167l.749-4c.0076-.0392.02443-.0741.04134-.1091.00978-.0203.01959-.0406.02766-.0619.0079-.0199.01481-.0405.02173-.0612.01495-.0446.02997-.0895.05527-.1278.01475-.0227.03405-.0409.05347-.0593.01215-.0114.02436-.023.03553-.0357.0088-.0102.01752-.0204.02621-.0307.04759-.0561.09476-.1117.15479-.1523.00589-.0042.01294-.0068.0199-.0093.00603-.0022.01199-.0044.0171-.0077.097-.063.201-.112.316-.137.007-.0016.01429-.0012.02157-.0007.00622.0003.01243.0007.01843-.0003.11-.018.221-.029.338-.009l4.25.706c.545.089.913.605.823 1.15-.081.489-.505.836-.986.836-.054 0-.109-.004-.164-.014l-1.644-.272c1.245 2.186 3.622 3.581 6.23798 3.581 2.959 0 5.566-1.718 6.643-4.375z" fill="#6b7280" fill-rule="evenodd"/></svg>

<svg width="24" height="24" viewBox="0 0 24 24" fill="none" xmlns="http://www.w3.org/2000/svg">
<g id="Icon/Outline/Sync">
<path id="Mask" fill-rule="evenodd" clip-rule="evenodd" d="M21.6828 10.326C21.6755 10.3419 21.6683 10.3578 21.6615 10.374C21.6546 10.3908 21.6492 10.4082 21.6438 10.4257C21.6351 10.454 21.6264 10.4822 21.6115 10.507C21.5819 10.556 21.5433 10.5972 21.5045 10.6385C21.4934 10.6502 21.4824 10.662 21.4715 10.674C21.4594 10.6865 21.4487 10.7003 21.438 10.714C21.4231 10.7331 21.4081 10.7523 21.3895 10.768C21.3335 10.8137 21.2688 10.8455 21.2043 10.8772C21.1997 10.8795 21.1951 10.8817 21.1905 10.884C21.1769 10.8906 21.1639 10.8989 21.1509 10.9073C21.1325 10.9191 21.114 10.931 21.0935 10.938C20.9855 10.978 20.8705 11 20.7515 11C20.6975 11 20.6415 10.996 20.5865 10.986L16.3365 10.281C15.7915 10.191 15.4235 9.676 15.5135 9.131C15.6035 8.587 16.1175 8.214 16.6635 8.309L18.3075 8.581C17.0625 6.395 14.6855 5 12.0695 5C9.11049 5 6.50349 6.718 5.42649 9.375C5.26949 9.765 4.89449 10 4.49949 10C4.37449 10 4.24749 9.977 4.12449 9.927C3.61249 9.72 3.36549 9.137 3.57349 8.625C4.95749 5.208 8.29249 3 12.0695 3C15.4815 3 18.5825 4.87 20.1475 7.788L20.5165 5.815C20.6185 5.273 21.1425 4.914 21.6835 5.018C22.2265 5.119 22.5845 5.642 22.4825 6.185L21.7335 10.185C21.7239 10.236 21.7033 10.281 21.6828 10.326ZM18.5734 14.6252C18.7804 14.1122 19.3644 13.8662 19.8754 14.0732C20.3874 14.2802 20.6344 14.8632 20.4264 15.3752C19.0424 18.7922 15.7074 21.0002 11.9304 21.0002C8.51839 21.0002 5.41739 19.1302 3.85239 16.2122L3.48239 18.1842C3.39339 18.6652 2.97339 19.0002 2.50039 19.0002C2.43939 19.0002 2.37739 18.9942 2.31539 18.9822C1.77239 18.8812 1.41539 18.3582 1.51739 17.8152L2.26639 13.8152C2.274 13.7759 2.29083 13.7411 2.30774 13.706C2.31752 13.6858 2.32733 13.6655 2.33539 13.6442C2.3433 13.6243 2.35021 13.6037 2.35712 13.583C2.37208 13.5383 2.3871 13.4935 2.41239 13.4552C2.42715 13.4324 2.44645 13.4142 2.46586 13.3959C2.47802 13.3844 2.49023 13.3729 2.50139 13.3602C2.5102 13.35 2.51891 13.3397 2.52761 13.3295C2.5752 13.2734 2.62236 13.2178 2.68239 13.1772C2.68829 13.1729 2.69533 13.1703 2.7023 13.1678C2.70832 13.1656 2.71429 13.1634 2.71939 13.1602C2.81639 13.0972 2.92039 13.0482 3.03539 13.0232C3.0424 13.0216 3.04969 13.022 3.05696 13.0224C3.06319 13.0228 3.0694 13.0231 3.07539 13.0222C3.18539 13.0042 3.29639 12.9932 3.41339 13.0132L7.66339 13.7192C8.20839 13.8082 8.57639 14.3242 8.48639 14.8692C8.40539 15.3582 7.98139 15.7052 7.50039 15.7052C7.44639 15.7052 7.39139 15.7012 7.33639 15.6912L5.69239 15.4192C6.93739 17.6052 9.31439 19.0002 11.9304 19.0002C14.8894 19.0002 17.4964 17.2822 18.5734 14.6252Z" fill="#000000"/>
</g>
</svg>
